; generated by Slic3r 1.2.9 on 2016-06-14 at 21:29:34

; external perimeters extrusion width = 0.40mm
; perimeters extrusion width = 0.67mm
; infill extrusion width = 0.67mm
; solid infill extrusion width = 0.67mm
; top infill extrusion width = 0.67mm

M107
M190 S55 ; set bed temperature
M104 S200 ; set temperature
G28 ; home all axes
G1 Z5 F5000 ; lift nozzle
M84 S0

M109 S200 ; wait for temperature to be reached
G21 ; set units to millimeters
G90 ; use absolute coordinates
M82 ; use absolute distances for extrusion
G92 E0
G1 Z0.400 F6000.000
G1 E-2.50000 F2400.00000
G92 E0
G1 X26.714 Y0.000 F6000.000
G1 E2.50000 F2400.00000
G1 X26.714 Y17.000 E4.51901 F1800.000
G1 X26.657 Y17.996 E4.63750
G1 X26.492 Y19.037 E4.76264
G1 X26.382 Y19.495 E4.81860
G1 X26.056 Y20.496 E4.94367
G1 X25.876 Y20.932 E4.99965
G1 X25.398 Y21.870 E5.12471
G1 X25.152 Y22.271 E5.18062
G1 X24.533 Y23.124 E5.30574
G1 X24.227 Y23.482 E5.36164
G1 X23.482 Y24.227 E5.48679
G1 X23.123 Y24.533 E5.54277
G1 X22.272 Y25.152 E5.66782
G1 X21.870 Y25.398 E5.72373
G1 X20.931 Y25.876 E5.84885
G1 X20.496 Y26.056 E5.90476
G1 X19.494 Y26.382 E6.02989
G1 X19.037 Y26.492 E6.08580
G1 X17.996 Y26.657 E6.21094
G1 X17.000 Y26.714 E6.32943
G1 X-17.000 Y26.714 E10.36745
G1 X-17.996 Y26.657 E10.48594
G1 X-19.037 Y26.492 E10.61107
G1 X-19.494 Y26.382 E10.66698
G1 X-20.496 Y26.056 E10.79211
G1 X-20.932 Y25.876 E10.84807
G1 X-21.870 Y25.398 E10.97315
G1 X-22.272 Y25.152 E11.02913
G1 X-23.124 Y24.533 E11.15418
G1 X-23.482 Y24.227 E11.21009
G1 X-24.227 Y23.482 E11.33522
G1 X-24.533 Y23.124 E11.39118
G1 X-25.152 Y22.271 E11.51626
G1 X-25.398 Y21.870 E11.57221
G1 X-25.876 Y20.931 E11.69729
G1 X-26.056 Y20.496 E11.75320
G1 X-26.382 Y19.494 E11.87833
G1 X-26.492 Y19.037 E11.93424
G1 X-26.657 Y17.996 E12.05938
G1 X-26.714 Y17.000 E12.17787
G1 X-26.714 Y-17.000 E16.21589
G1 X-26.693 Y-17.527 E16.27849
G1 X-26.657 Y-17.996 E16.33443
G1 X-26.492 Y-19.037 E16.45953
G1 X-26.382 Y-19.495 E16.51549
G1 X-26.056 Y-20.496 E16.64057
G1 X-25.876 Y-20.932 E16.69652
G1 X-25.398 Y-21.870 E16.82161
G1 X-25.152 Y-22.271 E16.87752
G1 X-24.533 Y-23.124 E17.00265
G1 X-24.227 Y-23.482 E17.05856
G1 X-23.482 Y-24.227 E17.18368
G1 X-23.124 Y-24.533 E17.23959
G1 X-22.271 Y-25.152 E17.36472
G1 X-21.870 Y-25.398 E17.42063
G1 X-20.931 Y-25.876 E17.54576
G1 X-20.496 Y-26.056 E17.60167
G1 X-19.494 Y-26.382 E17.72680
G1 X-19.055 Y-26.487 E17.78047
G1 X-17.996 Y-26.657 E17.90783
G1 X-17.527 Y-26.693 E17.96376
G1 X-17.000 Y-26.714 E18.02635
G1 X17.000 Y-26.714 E22.06436
G1 X17.527 Y-26.693 E22.12697
G1 X17.996 Y-26.657 E22.18291 F1800.000
G1 X19.037 Y-26.492 E22.30801
G1 X19.495 Y-26.382 E22.36398
G1 X20.496 Y-26.056 E22.48905
G1 X20.931 Y-25.876 E22.54497
G1 X21.870 Y-25.398 E22.67008
G1 X22.272 Y-25.152 E22.72601
G1 X23.124 Y-24.533 E22.85112
G1 X23.482 Y-24.227 E22.90703
G1 X24.227 Y-23.482 E23.03217
G1 X24.533 Y-23.124 E23.08810
G1 X25.152 Y-22.272 E23.21320
G1 X25.398 Y-21.870 E23.26911
G1 X25.876 Y-20.931 E23.39423
G1 X26.056 Y-20.496 E23.45014
G1 X26.382 Y-19.494 E23.57527
G1 X26.492 Y-19.037 E23.63118
G1 X26.657 Y-17.996 E23.75631
G1 X26.714 Y-17.000 E23.87481
G1 X26.714 Y-0.060 E25.88669
G1 E23.38669 F2400.00000
G92 E0
G1 X6.714 Y-18.172 F6000.000
G1 E2.50000 F2400.00000
G1 X16.928 Y-18.172 E3.71307 F1800.000
G1 X17.169 Y-18.153 E3.74178
G1 X17.365 Y-18.107 E3.76572 F1800.000
G1 X17.529 Y-18.039 E3.78679
G1 X17.685 Y-17.943 E3.80852
G1 X17.825 Y-17.825 E3.83025
G1 X17.943 Y-17.685 E3.85198
G1 X18.039 Y-17.529 E3.87371
G1 X18.109 Y-17.360 E3.89544
G1 X18.152 Y-17.182 E3.91717
G1 X18.172 Y-16.928 E3.94746
G1 X18.172 Y16.928 E7.96842
G1 X18.152 Y17.182 E7.99870
G1 X18.109 Y17.360 E8.02043
G1 X18.039 Y17.529 E8.04216
G1 X17.943 Y17.685 E8.06390
G1 X17.825 Y17.825 E8.08563
G1 X17.685 Y17.943 E8.10736
G1 X17.529 Y18.039 E8.12909
G1 X17.360 Y18.109 E8.15082
G1 X17.182 Y18.152 E8.17255
G1 X16.928 Y18.172 E8.20284
G1 X-16.928 Y18.172 E12.22379
G1 X-17.182 Y18.152 E12.25408
G1 X-17.360 Y18.109 E12.27581
G1 X-17.529 Y18.039 E12.29754
G1 X-17.685 Y17.943 E12.31927
G1 X-17.825 Y17.825 E12.34100
G1 X-17.943 Y17.685 E12.36273
G1 X-18.039 Y17.529 E12.38446
G1 X-18.104 Y17.373 E12.40462
G1 X-18.152 Y17.177 E12.42855
G1 X-18.172 Y16.928 E12.45818
G1 X-18.172 Y-16.928 E16.47914
G1 X-18.152 Y-17.182 E16.50943
G1 X-18.109 Y-17.360 E16.53116
G1 X-18.039 Y-17.529 E16.55289
G1 X-17.943 Y-17.685 E16.57462
G1 X-17.825 Y-17.825 E16.59635
G1 X-17.685 Y-17.943 E16.61808
G1 X-17.529 Y-18.039 E16.63981
G1 X-17.360 Y-18.109 E16.66154
G1 X-17.182 Y-18.152 E16.68327
G1 X-16.928 Y-18.172 E16.71356
G1 X6.654 Y-18.172 E19.51432
G1 X6.714 Y-18.886 F6000.000
G1 X16.956 Y-18.886 E20.73072 F1800.000
G1 X17.279 Y-18.860 E20.76918
G1 X17.585 Y-18.789 E20.80647 F1800.000
G1 X17.855 Y-18.677 E20.84115
G1 X18.106 Y-18.523 E20.87623
G1 X18.331 Y-18.331 E20.91131
G1 X18.523 Y-18.106 E20.94639
G1 X18.677 Y-17.855 E20.98148
G1 X18.790 Y-17.582 E21.01656
G1 X18.859 Y-17.294 E21.05164
G1 X18.886 Y-16.956 E21.09193
G1 X18.886 Y16.956 E25.11955
G1 X18.859 Y17.294 E25.15985
G1 X18.790 Y17.582 E25.19493
G1 X18.677 Y17.855 E25.23001
G1 X18.523 Y18.106 E25.26509
G1 X18.331 Y18.331 E25.30017
G1 X18.106 Y18.523 E25.33525
G1 X17.855 Y18.677 E25.37034
G1 X17.582 Y18.790 E25.40542
G1 X17.294 Y18.859 E25.44050
G1 X16.956 Y18.886 E25.48079
G1 X-16.956 Y18.886 E29.50841
G1 X-17.294 Y18.859 E29.54871
G1 X-17.582 Y18.790 E29.58379
G1 X-17.855 Y18.677 E29.61887
G1 X-18.106 Y18.523 E29.65395
G1 X-18.331 Y18.331 E29.68903
G1 X-18.523 Y18.106 E29.72411
G1 X-18.677 Y17.855 E29.75920
G1 X-18.784 Y17.596 E29.79244
G1 X-18.859 Y17.291 E29.82973
G1 X-18.886 Y16.956 E29.86963
G1 X-18.886 Y-16.956 E33.89724
G1 X-18.859 Y-17.294 E33.93754
G1 X-18.790 Y-17.582 E33.97262
G1 X-18.677 Y-17.855 E34.00770
G1 X-18.523 Y-18.106 E34.04278
G1 X-18.331 Y-18.331 E34.07787
G1 X-18.106 Y-18.523 E34.11295
G1 X-17.855 Y-18.677 E34.14803
G1 X-17.582 Y-18.790 E34.18311
G1 X-17.294 Y-18.859 E34.21819
G1 X-16.956 Y-18.886 E34.25849
G1 X6.654 Y-18.886 E37.06258
G1 X6.714 Y-19.600 F6000.000
G1 X16.984 Y-19.600 E38.28231 F1800.000
G1 X17.389 Y-19.568 E38.33052
G1 X17.804 Y-19.471 E38.38116 F1800.000
G1 X18.180 Y-19.316 E38.42945
G1 X18.528 Y-19.102 E38.47788
G1 X18.838 Y-18.838 E38.52631
G1 X19.102 Y-18.528 E38.57475
G1 X19.316 Y-18.180 E38.62318
G1 X19.472 Y-17.803 E38.67161
G1 X19.567 Y-17.407 E38.72004
G1 X19.600 Y-16.984 E38.77034
G1 X19.600 Y16.984 E42.80463
G1 X19.567 Y17.407 E42.85493
G1 X19.472 Y17.803 E42.90336
G1 X19.316 Y18.180 E42.95179
G1 X19.102 Y18.528 E43.00023
G1 X18.838 Y18.838 E43.04866
G1 X18.528 Y19.102 E43.09709
G1 X18.180 Y19.316 E43.14552
G1 X17.803 Y19.472 E43.19395
G1 X17.407 Y19.567 E43.24238
G1 X16.984 Y19.600 E43.29269
G1 X-16.984 Y19.600 E47.32697
G1 X-17.407 Y19.567 E47.37728
G1 X-17.803 Y19.472 E47.42571
G1 X-18.180 Y19.316 E47.47414
G1 X-18.528 Y19.102 E47.52257
G1 X-18.838 Y18.838 E47.57100
G1 X-19.102 Y18.528 E47.61943
G1 X-19.316 Y18.180 E47.66787
G1 X-19.465 Y17.819 E47.71421
G1 X-19.567 Y17.405 E47.76485
G1 X-19.600 Y16.984 E47.81501
G1 X-19.600 Y-16.984 E51.84929
G1 X-19.567 Y-17.407 E51.89959
G1 X-19.472 Y-17.803 E51.94803
G1 X-19.316 Y-18.180 E51.99646
G1 X-19.102 Y-18.528 E52.04489
G1 X-18.838 Y-18.838 E52.09332
G1 X-18.528 Y-19.102 E52.14175
G1 X-18.180 Y-19.316 E52.19018
G1 X-17.803 Y-19.472 E52.23862
G1 X-17.407 Y-19.567 E52.28705
G1 X-16.984 Y-19.600 E52.33735
G1 X6.654 Y-19.600 E55.14477
G1 X6.914 Y-19.254 F6000.000
G1 X17.647 Y-17.140 F6000.000
G1 X17.140 Y-17.647 E55.23104 F1800.000
G1 X16.029 Y-17.736 E55.36524
G1 X17.736 Y-16.029 E55.65580
G1 X17.736 Y-15.005 E55.77890
G1 X15.005 Y-17.736 E56.24356
G1 X13.982 Y-17.736 E56.36666
G1 X17.736 Y-13.982 E57.00541
G1 X17.736 Y-12.959 E57.12852
G1 X12.959 Y-17.736 E57.94136
G1 X11.936 Y-17.736 E58.06447
G1 X17.736 Y-11.936 E59.05141
G1 X17.736 Y-10.913 E59.17452
G1 X10.913 Y-17.736 E60.33556
G1 X9.890 Y-17.736 E60.45867
G1 X17.736 Y-9.890 E61.79381
G1 X17.736 Y-8.866 E61.91692
G1 X8.866 Y-17.736 E63.42615
G1 X7.843 Y-17.736 E63.54926
G1 X17.736 Y-7.843 E65.23260
G1 X17.736 Y-6.820 E65.35570
G1 X6.820 Y-17.736 E67.21314
G1 X5.797 Y-17.736 E67.33624
G1 X17.736 Y-5.797 E69.36777
G1 X17.736 Y-4.774 E69.49088
G1 X4.774 Y-17.736 E71.69651
G1 X3.750 Y-17.736 E71.81961
G1 X17.736 Y-3.750 E74.19934
G1 X17.736 Y-2.727 E74.32245
G1 X2.727 Y-17.736 E76.87627
G1 X1.704 Y-17.736 E76.99938
G1 X17.736 Y-1.704 E79.72730
G1 X17.736 Y-0.681 E79.85041
G1 X0.681 Y-17.736 E82.75243
G1 X-0.342 Y-17.736 E82.87553
G1 X17.736 Y0.342 E85.95165
G1 X17.736 Y1.365 E86.07476
G1 X-1.365 Y-17.736 E89.32497
G1 X-2.389 Y-17.736 E89.44808
G1 X17.736 Y2.389 E92.87239
G1 X17.736 Y3.412 E92.99550
G1 X-3.412 Y-17.736 E96.59391
G1 X-4.435 Y-17.736 E96.71702
G1 X17.736 Y4.435 E100.48952
G1 X17.736 Y5.458 E100.61263
G1 X-5.458 Y-17.736 E104.55924
G1 X-6.481 Y-17.736 E104.68234
G1 X17.736 Y6.481 E108.80305
G1 X17.736 Y7.504 E108.92615
G1 X-7.504 Y-17.736 E113.22096
G1 X-8.528 Y-17.736 E113.34406
G1 X17.736 Y8.528 E117.81296
G1 X17.736 Y9.551 E117.93607
G1 X-9.551 Y-17.736 E122.57907
G1 X-10.574 Y-17.736 E122.70217
G1 X17.736 Y10.574 E127.51927
G1 X17.736 Y11.597 E127.64238
G1 X-11.597 Y-17.736 E132.63357
G1 X-12.620 Y-17.736 E132.75668
G1 X17.736 Y12.620 E137.92197
G1 X17.736 Y13.643 E138.04507
G1 X-13.643 Y-17.736 E143.38446
G1 X-14.667 Y-17.736 E143.50757
G1 X17.736 Y14.667 E149.02106
G1 X17.736 Y15.690 E149.14416
G1 X-15.690 Y-17.736 E154.83175
G1 X-16.713 Y-17.736 E154.95485
G1 X17.736 Y16.713 E160.81654
G1 X17.545 Y17.545 E160.91929
G1 X-17.545 Y-17.545 E166.89017
G1 X-17.736 Y-16.713 E166.99292
G1 X16.713 Y17.736 E172.85460
G1 X15.690 Y17.736 E172.97771
G1 X-17.736 Y-15.690 E178.66529
G1 X-17.736 Y-14.667 E178.78839
G1 X14.667 Y17.736 E184.30188
G1 X13.643 Y17.736 E184.42498
G1 X-17.736 Y-13.643 E189.76437
G1 X-17.736 Y-12.620 E189.88747
G1 X12.620 Y17.736 E195.05276
G1 X11.597 Y17.736 E195.17587
G1 X-17.736 Y-11.597 E200.16706
G1 X-17.736 Y-10.574 E200.29016
G1 X10.574 Y17.736 E205.10725
G1 X9.551 Y17.736 E205.23036
G1 X-17.736 Y-9.551 E209.87335
G1 X-17.736 Y-8.528 E209.99646
G1 X8.528 Y17.736 E214.46536
G1 X7.504 Y17.736 E214.58846
G1 X-17.736 Y-7.504 E218.88326
G1 X-17.736 Y-6.481 E219.00637
G1 X6.481 Y17.736 E223.12707
G1 X5.458 Y17.736 E223.25017
G1 X-17.736 Y-5.458 E227.19678
G1 X-17.736 Y-4.435 E227.31988
G1 X4.435 Y17.736 E231.09239
G1 X3.412 Y17.736 E231.21549
G1 X-17.736 Y-3.412 E234.81390
G1 X-17.736 Y-2.389 E234.93701
G1 X2.389 Y17.736 E238.36132
G1 X1.365 Y17.736 E238.48442
G1 X-17.736 Y-1.365 E241.73463
G1 X-17.736 Y-0.342 E241.85774
G1 X0.342 Y17.736 E244.93385
G1 X-0.681 Y17.736 E245.05696
G1 X-17.736 Y0.681 E247.95898
G1 X-17.736 Y1.704 E248.08208
G1 X-1.704 Y17.736 E250.81000
G1 X-2.727 Y17.736 E250.93311
G1 X-17.736 Y2.727 E253.48693
G1 X-17.736 Y3.751 E253.61003
G1 X-3.751 Y17.736 E255.98975
G1 X-4.774 Y17.736 E256.11286
G1 X-17.736 Y4.774 E258.31849
G1 X-17.736 Y5.797 E258.44159
G1 X-5.797 Y17.736 E260.47312
G1 X-6.820 Y17.736 E260.59622
G1 X-17.736 Y6.820 E262.45365
G1 X-17.736 Y7.843 E262.57676
G1 X-7.843 Y17.736 E264.26009
G1 X-8.866 Y17.736 E264.38320
G1 X-17.736 Y8.866 E265.89243
G1 X-17.736 Y9.890 E266.01554
G1 X-9.890 Y17.736 E267.35067
G1 X-10.913 Y17.736 E267.47378
G1 X-17.736 Y10.913 E268.63482
G1 X-17.736 Y11.936 E268.75792
G1 X-11.936 Y17.736 E269.74486
G1 X-12.959 Y17.736 E269.86797
G1 X-17.736 Y12.959 E270.68081
G1 X-17.736 Y13.982 E270.80392
G1 X-13.982 Y17.736 E271.44266
G1 X-15.005 Y17.736 E271.56577
G1 X-17.736 Y15.005 E272.03042
G1 X-17.736 Y16.029 E272.15352
G1 X-16.029 Y17.736 E272.44407
G1 X-17.141 Y17.647 E272.57828
G1 X-17.647 Y17.141 E272.66453
G1 Z0.600 F6000.000
G1 X6.714 Y-18.679 F6000.000
G1 X16.948 Y-18.679 E273.19920 F2100.000
G1 X17.225 Y-18.657 E273.21369
G1 X17.526 Y-18.589 E273.22985 F2100.000
G1 X17.760 Y-18.492 E273.24308
G1 X17.984 Y-18.355 E273.25682
G1 X18.184 Y-18.184 E273.27055
G1 X18.355 Y-17.984 E273.28428
G1 X18.473 Y-17.792 E273.29604
G1 X18.595 Y-17.508 E273.31221
G1 X18.654 Y-17.262 E273.32544
G1 X18.679 Y-16.948 E273.34189
G1 X18.679 Y16.948 E275.11280
G1 X18.654 Y17.262 E275.12925
G1 X18.593 Y17.518 E275.14298
G1 X18.492 Y17.760 E275.15671
G1 X18.355 Y17.984 E275.17044
G1 X18.184 Y18.184 E275.18417
G1 X17.984 Y18.355 E275.19790
G1 X17.792 Y18.473 E275.20967
G1 X17.508 Y18.595 E275.22583
G1 X17.262 Y18.654 E275.23907
G1 X16.948 Y18.679 E275.25552
G1 X-16.948 Y18.679 E277.02642
G1 X-17.262 Y18.654 E277.04287
G1 X-17.518 Y18.593 E277.05661
G1 X-17.760 Y18.492 E277.07034
G1 X-17.984 Y18.355 E277.08407
G1 X-18.184 Y18.184 E277.09780
G1 X-18.355 Y17.984 E277.11153
G1 X-18.492 Y17.760 E277.12526
G1 X-18.579 Y17.552 E277.13703
G1 X-18.655 Y17.253 E277.15319
G1 X-18.679 Y16.948 E277.16915
G1 X-18.679 Y-16.948 E278.94005
G1 X-18.654 Y-17.262 E278.95650
G1 X-18.593 Y-17.518 E278.97023
G1 X-18.492 Y-17.760 E278.98396
G1 X-18.375 Y-17.952 E278.99573
G1 X-18.177 Y-18.190 E279.01189
G1 X-17.984 Y-18.355 E279.02513
G1 X-17.760 Y-18.492 E279.03886
G1 X-17.552 Y-18.579 E279.05062
G1 X-17.253 Y-18.655 E279.06679
G1 X-16.948 Y-18.679 E279.08274
G1 X6.654 Y-18.679 E280.31584
G1 X6.714 Y-19.307 F6000.000
G1 X16.973 Y-19.307 E280.85180 F2100.000
G1 X17.319 Y-19.280 E280.86993
G1 X17.717 Y-19.190 E280.89126 F2100.000
G1 X18.047 Y-19.054 E280.90989
G1 X18.355 Y-18.865 E280.92879
G1 X18.630 Y-18.630 E280.94769
G1 X18.865 Y-18.355 E280.96659
G1 X19.032 Y-18.082 E280.98329
G1 X19.193 Y-17.708 E281.00462
G1 X19.277 Y-17.361 E281.02325
G1 X19.307 Y-16.973 E281.04358
G1 X19.307 Y16.973 E282.81706
G1 X19.277 Y17.361 E282.83739
G1 X19.192 Y17.712 E282.85628
G1 X19.054 Y18.047 E282.87518
G1 X18.865 Y18.355 E282.89408
G1 X18.630 Y18.630 E282.91298
G1 X18.355 Y18.865 E282.93188
G1 X18.082 Y19.032 E282.94858
G1 X17.708 Y19.193 E282.96990
G1 X17.361 Y19.277 E282.98854
G1 X16.973 Y19.307 E283.00887
G1 X-16.973 Y19.307 E284.78235
G1 X-17.361 Y19.277 E284.80268
G1 X-17.712 Y19.192 E284.82157
G1 X-18.047 Y19.054 E284.84047
G1 X-18.355 Y18.865 E284.85937
G1 X-18.630 Y18.630 E284.87827
G1 X-18.865 Y18.355 E284.89717
G1 X-19.054 Y18.047 E284.91606
G1 X-19.176 Y17.751 E284.93276
G1 X-19.277 Y17.356 E284.95409
G1 X-19.307 Y16.973 E284.97416
G1 X-19.307 Y-16.973 E286.74764
G1 X-19.277 Y-17.361 E286.76796
G1 X-19.192 Y-17.712 E286.78686
G1 X-19.054 Y-18.047 E286.80576
G1 X-18.887 Y-18.319 E286.82246
G1 X-18.626 Y-18.633 E286.84379
G1 X-18.355 Y-18.865 E286.86243
G1 X-18.047 Y-19.054 E286.88132
G1 X-17.751 Y-19.176 E286.89802
G1 X-17.356 Y-19.277 E286.91935
G1 X-16.973 Y-19.307 E286.93942
G1 X6.654 Y-19.307 E288.17380
G1 X6.714 Y-19.800 F6000.000
G1 X16.992 Y-19.800 E288.47897 F1050.000
G1 X17.392 Y-19.768 E288.49089
G1 X17.866 Y-19.662 E288.50532 F1050.000
G1 X18.271 Y-19.494 E288.51832
G1 X18.645 Y-19.265 E288.53136
G1 X18.979 Y-18.979 E288.54440
G1 X19.265 Y-18.645 E288.55744
G1 X19.470 Y-18.310 E288.56913
G1 X19.663 Y-17.864 E288.58356
G1 X19.765 Y-17.438 E288.59656
G1 X19.800 Y-16.992 E288.60983
G1 X19.800 Y16.992 E289.61887
G1 X19.765 Y17.438 E289.63215
G1 X19.662 Y17.865 E289.64519
G1 X19.494 Y18.271 E289.65823
G1 X19.265 Y18.645 E289.67128
G1 X18.979 Y18.979 E289.68432
G1 X18.645 Y19.265 E289.69736
G1 X18.310 Y19.470 E289.70905
G1 X17.864 Y19.663 E289.72347
G1 X17.438 Y19.765 E289.73647
G1 X16.992 Y19.800 E289.74975
G1 X-16.992 Y19.800 E290.75879
G1 X-17.438 Y19.765 E290.77206
G1 X-17.865 Y19.662 E290.78511
G1 X-18.271 Y19.494 E290.79815
G1 X-18.645 Y19.265 E290.81119
G1 X-18.979 Y18.979 E290.82423
G1 X-19.265 Y18.645 E290.83728
G1 X-19.494 Y18.271 E290.85032
G1 X-19.645 Y17.907 E290.86201
G1 X-19.765 Y17.436 E290.87643
G1 X-19.800 Y16.992 E290.88967
G1 X-19.800 Y-16.992 E291.89870
G1 X-19.765 Y-17.438 E291.91198
G1 X-19.662 Y-17.865 E291.92502
G1 X-19.494 Y-18.271 E291.93806
G1 X-19.289 Y-18.607 E291.94975
G1 X-18.978 Y-18.980 E291.96418
G1 X-18.645 Y-19.265 E291.97718
G1 X-18.271 Y-19.494 E291.99022
G1 X-17.907 Y-19.645 E292.00191
G1 X-17.436 Y-19.765 E292.01633
G1 X-16.992 Y-19.800 E292.02957
G1 X6.654 Y-19.800 E292.73165
G1 X6.914 Y-19.454 F6000.000
G1 X-17.523 Y-18.086 F6000.000
